X: 253
T: The Battle Eve
B: O'Neill's 253
N: "Animated"
N: "Collected by F.O'Neill"
Z: 1997 by John Chambers <jc@trillian.mit.edu>
M: C
L: 1/8
K:Gm
D2 \
| G3^F G2A2 | G4 B3B | AF3 F3F | F4 ^F3F |
| D2G2 G2A2 | B4 A2G2 | D4 ">"E4 | ">"D6 f2 |
| (f3d B2d2) | f4 =e2d2 | (c3A F2A2) | c4 B3c |
| (d3B) (c3A) | D4 G3^F | G4 A4 | B4 B2c2 |
| d3d c2B2 | f4 F3F | B4 ||


